icons/src/fluent/svg/chat_multiple_24_filled.svg

<svg width="24" height="24" viewBox="0 0 24 24" fill="none" xmlns="http://www.w3.org/2000/svg">
<path d="M9.5 3C5.35786 3 2 6.35786 2 10.5C2 11.6335 2.25193 12.71 2.70336 13.6749C2.40124 14.9 2.13954 16.2085 2.02174 16.8173C1.88844 17.5063 2.48734 18.1099 3.17494 17.9875C3.79825 17.8765 5.15315 17.6267 6.41143 17.3363C7.35412 17.7628 8.40027 18 9.5 18C13.6421 18 17 14.6421 17 10.5C17 6.35786 13.6421 3 9.5 3ZM9.46191 18.9996C10.8001 20.2411 12.5922 21.0002 14.5616 21.0002C15.6611 21.0002 16.707 20.7631 17.6495 20.3368C18.6933 20.5811 19.8358 20.8249 20.563 20.9769C21.4554 21.1634 22.2348 20.3624 22.0304 19.4775C21.8679 18.7741 21.6117 17.6822 21.3586 16.6742C21.8098 15.7095 22.0616 14.6333 22.0616 13.5002C22.0616 10.2172 19.9523 7.42696 17.015 6.41064C17.3653 7.04768 17.6363 7.73448 17.8146 8.45773C19.4676 9.52629 20.5616 11.3855 20.5616 13.5002C20.5616 14.4916 20.3217 15.4248 19.8975 16.247L19.767 16.5L19.8372 16.7758C20.065 17.6713 20.3037 18.6758 20.4787 19.4264C19.7046 19.2627 18.6611 19.0362 17.7395 18.8168L17.475 18.7539L17.2316 18.875C16.4283 19.2749 15.5223 19.5002 14.5616 19.5002C13.5021 19.5002 12.5067 19.2255 11.6427 18.7436C10.9768 18.9112 10.2796 19.0002 9.56163 19.0002C9.52835 19.0002 9.49511 19 9.46191 18.9996Z" fill="#212121"/>
</svg>

<svg width="24" height="24" fill="none" viewBox="0 0 24 24" xmlns="http://www.w3.org/2000/svg"><path d="M9.5 3a7.5 7.5 0 0 0-6.797 10.675 68.094 68.094 0 0 0-.681 3.142.996.996 0 0 0 1.153 1.17c.623-.11 1.978-.36 3.236-.65A7.5 7.5 0 1 0 9.5 3Zm-.038 16a7.473 7.473 0 0 0 5.1 2c1.1 0 2.145-.237 3.088-.663 1.043.244 2.186.488 2.913.64a1.244 1.244 0 0 0 1.467-1.5c-.162-.703-.418-1.795-.671-2.803A7.503 7.503 0 0 0 17.015 6.41a8.44 8.44 0 0 1 .8 2.048 5.995 5.995 0 0 1 2.747 5.042c0 .992-.24 1.925-.665 2.747l-.13.253.07.276c.228.895.467 1.9.642 2.65-.774-.163-1.818-.39-2.74-.61l-.264-.062-.243.121c-.804.4-1.71.625-2.67.625a5.974 5.974 0 0 1-2.92-.756 8.517 8.517 0 0 1-2.18.256Z" fill="#212121"/></svg>
